packages/astro-components-stencil/src/icons/gif.svg

<svg xmlns="http://www.w3.org/2000/svg" viewBox="0 0 24 24"><g xmlns="http://www.w3.org/2000/svg" id="gif" fill-rule="nonzero">
            <path d="M12.25 9c.41 0 .75.34.75.75v4.5c0 .41-.34.75-.75.75s-.75-.34-.75-.75v-4.5c0-.41.34-.75.75-.75zM10 9.75c0-.41-.34-.75-.75-.75H6c-.6 0-1 .5-1 1v4c0 .5.4 1 1 1h3c.6 0 1-.5 1-1v-1.25c0-.41-.34-.75-.75-.75s-.75.34-.75.75v.75h-2v-3h2.75c.41 0 .75-.34.75-.75zm9 0c0-.41-.34-.75-.75-.75H15.5c-.55 0-1 .45-1 1v4.25c0 .41.34.75.75.75s.75-.34.75-.75V13h1.25c.41 0 .75-.34.75-.75s-.34-.75-.75-.75H16v-1h2.25c.41 0 .75-.34.75-.75z"/>
        </g></svg>

<svg width="24" height="24" viewBox="0 0 24 24" fill="none" xmlns="http://www.w3.org/2000/svg">
<path fill-rule="evenodd" clip-rule="evenodd" d="M10 9.75C10 9.34 9.66 9 9.25 9H6C5.4 9 5 9.5 5 10V14C5 14.5 5.4 15 6 15H9C9.6 15 10 14.5 10 14V12.75C10 12.34 9.66 12 9.25 12C8.84 12 8.5 12.34 8.5 12.75V13.5H6.5V10.5H9.25C9.66 10.5 10 10.16 10 9.75ZM12.25 9C12.66 9 13 9.34 13 9.75V14.25C13 14.66 12.66 15 12.25 15C11.84 15 11.5 14.66 11.5 14.25V9.75C11.5 9.34 11.84 9 12.25 9ZM18.25 9C18.66 9 19 9.34 19 9.75C19 10.16 18.66 10.5 18.25 10.5H16V11.5H17.25C17.66 11.5 18 11.84 18 12.25C18 12.66 17.66 13 17.25 13H16V14.25C16 14.66 15.66 15 15.25 15C14.84 15 14.5 14.66 14.5 14.25V10C14.5 9.45 14.95 9 15.5 9H18.25Z" fill="black"/>
</svg>
